public/img/workshop-about-1.svg

<svg width="148" height="166" viewBox="0 0 148 166" fill="none" xmlns="http://www.w3.org/2000/svg">
<path d="M144.75 67.6051H134.134C132.574 60.1021 129.585 52.8846 125.377 46.4631L132.883 38.9568C134.148 37.6917 134.148 35.6394 132.883 34.3733L119.754 21.2448C119.465 20.9559 119.127 20.7302 118.76 20.5694V11.0847C118.761 4.55787 115.304 0 110.353 0H94.7475C90.3776 0 87.1731 3.55376 86.4818 8.87776C86.2403 7.32637 84.9026 6.13778 83.2834 6.13778H64.7154C62.9254 6.13778 61.4745 7.58931 61.4745 9.37868V19.9848C53.974 21.5456 46.7556 24.5378 40.3315 28.7491L32.8275 21.2454C31.5621 19.9803 29.5098 19.9803 28.244 21.2454L15.1145 34.3737C14.5069 34.9819 14.1651 35.8061 14.1651 36.6656C14.1651 37.5251 14.5069 38.3492 15.1145 38.9568L22.6204 46.4625C18.4108 52.8866 15.4202 60.1043 13.8607 67.6051H3.2487C1.45869 67.6051 0.0078125 69.0557 0.0078125 70.846V89.413C0.0078125 91.2031 1.45869 92.6539 3.2487 92.6539H13.8656C15.428 100.15 18.4205 107.364 22.6312 113.785L15.1145 121.3C14.5069 121.908 14.1651 122.733 14.1651 123.592C14.1651 124.452 14.5069 125.276 15.1145 125.883L28.2437 139.013C29.5095 140.278 31.5611 140.278 32.8269 139.013L40.3474 131.493C46.7676 135.699 53.9805 138.688 61.4742 140.249V150.879C61.4742 152.669 62.9251 154.12 64.7151 154.12H83.2831C85.0728 154.12 86.524 152.669 86.524 150.879V140.25C86.8978 140.172 87.2684 140.083 87.6406 139.999L99.647 164.2C100.194 165.302 101.319 166 102.55 166C103.781 166 104.906 165.303 105.453 164.2L117.479 139.962C118.332 139.957 119.15 139.616 119.754 139.013L132.883 125.884C134.148 124.619 134.148 122.566 132.883 121.301L125.367 113.785C129.575 107.367 132.566 100.153 134.129 92.6543H144.75C146.54 92.6543 147.991 91.2034 147.991 89.4134V70.8463C147.991 69.0557 146.539 67.6051 144.75 67.6051ZM86.3411 43.2511C82.3876 41.9238 78.2551 41.2497 73.9997 41.2497C52.5682 41.2497 35.1327 58.6859 35.1327 80.1164C35.1327 101.548 52.5685 118.984 73.9997 118.984C78.2544 118.984 82.3863 118.309 86.3411 116.981V133.651C85.1574 133.923 83.9646 134.16 82.7708 134.352C81.1987 134.604 80.0428 135.96 80.0428 137.551V147.639H67.956V137.551C67.956 135.96 66.8001 134.604 65.228 134.352C56.8469 133.007 48.7661 129.659 41.8602 124.669C40.5708 123.736 38.7957 123.878 37.6704 125.004L30.5346 132.139L21.9889 123.593L29.121 116.461C30.2464 115.336 30.3881 113.56 29.4556 112.27C24.4604 105.364 21.1086 97.2825 19.7615 88.8995C19.5089 87.3283 18.153 86.1725 16.5618 86.1725H6.48959V74.0872H16.5589C18.1508 74.0872 19.507 72.9307 19.7589 71.3592C21.1025 62.9711 24.452 54.8854 29.4459 47.9772C30.378 46.6875 30.236 44.9118 29.1107 43.7867L21.9895 36.6656L30.5353 28.1198L37.6551 35.2397C38.7808 36.3653 40.5559 36.5067 41.846 35.5746C48.7551 30.579 56.8408 27.2276 65.2286 25.8824C66.8004 25.6298 67.9566 24.2739 67.9566 22.682V12.6192H80.0428V22.6817C80.0428 24.2736 81.1987 25.6295 82.7705 25.8821C83.9659 26.0737 85.159 26.311 86.3411 26.582V43.2511ZM86.3408 50.166V110.064C82.4333 111.681 78.2914 112.502 73.9994 112.502C56.1421 112.502 41.6142 97.9737 41.6142 80.1161C41.6142 62.2591 56.1418 47.7312 73.9994 47.7312C78.293 47.7308 82.4349 48.5501 86.3408 50.166ZM92.8219 11.0847C92.8222 8.54641 93.686 6.48178 94.7475 6.48178H110.353C111.415 6.48178 112.279 8.54641 112.279 11.0847V20.1025H92.8222V11.0847H92.8219ZM102.55 155.467L95.7373 141.735C96.4655 141.629 97.2102 141.459 97.9669 141.218C99.542 140.716 101.181 139.879 102.549 138.788C103.919 139.879 105.558 140.716 107.133 141.218C107.89 141.46 108.635 141.629 109.363 141.735L102.55 155.467ZM112.279 134.775C112.279 134.776 112.279 134.777 112.279 134.778V135.147C111.672 135.415 110.917 135.406 110.303 135.32C107.96 134.994 106.139 133.535 105.79 132.911L105.79 54.7969C105.791 53.0075 104.34 51.556 102.55 51.556C100.76 51.556 99.3089 53.0072 99.3089 54.7969L99.3082 132.909C98.9649 133.529 97.1434 134.994 94.7954 135.32C94.1827 135.405 93.4285 135.415 92.8219 135.147V39.5527L112.279 39.5534V134.775ZM112.279 33.0719L92.8222 33.0713V26.5843H112.279V33.0719ZM118.76 29.4173L126.008 36.6652L118.887 43.787C118.842 43.8318 118.802 43.8788 118.76 43.9258V29.4173ZM126.008 123.592L118.761 130.84V116.334C118.799 116.376 118.836 116.42 118.876 116.461L126.008 123.592ZM131.432 86.1722C129.841 86.1722 128.485 87.3273 128.233 88.8992C126.904 97.1622 123.629 105.125 118.76 111.958V48.2739C123.634 55.1136 126.911 63.0858 128.236 71.3583C128.488 72.9301 129.844 74.0863 131.436 74.0863H141.509V86.1718H131.432V86.1722Z" fill="#715F7A"/>
</svg>

<svg width="148" height="166" fill="none" xmlns="http://www.w3.org/2000/svg"><path d="M144.75 67.605h-10.616a61.563 61.563 0 00-8.757-21.142l7.506-7.506a3.242 3.242 0 000-4.584l-13.129-13.128a3.242 3.242 0 00-.994-.676v-9.484C118.761 4.558 115.304 0 110.353 0H94.748c-4.37 0-7.575 3.554-8.266 8.878a3.239 3.239 0 00-3.199-2.74H64.715a3.241 3.241 0 00-3.24 3.24v10.607a61.576 61.576 0 00-21.144 8.764l-7.504-7.504a3.242 3.242 0 00-4.583 0l-13.13 13.129a3.243 3.243 0 000 4.583l7.506 7.505a61.57 61.57 0 00-8.76 21.143H3.25a3.24 3.24 0 00-3.241 3.241v18.567a3.24 3.24 0 003.24 3.24h10.618a61.574 61.574 0 008.765 21.132l-7.517 7.515a3.244 3.244 0 000 4.583l13.13 13.13a3.242 3.242 0 004.583 0l7.52-7.52a61.61 61.61 0 0021.127 8.756v10.63a3.24 3.24 0 003.241 3.241h18.568a3.24 3.24 0 003.241-3.241V140.25c.374-.078.744-.167 1.117-.251L99.647 164.2a3.242 3.242 0 005.806 0l12.026-24.238a3.248 3.248 0 002.275-.949l13.129-13.129a3.242 3.242 0 000-4.583l-7.516-7.516a61.583 61.583 0 008.762-21.13h10.621a3.24 3.24 0 003.241-3.242V70.846a3.241 3.241 0 00-3.241-3.24zM86.341 43.251A38.608 38.608 0 0074 41.25c-21.432 0-38.867 17.436-38.867 38.866 0 21.432 17.435 38.868 38.867 38.868a38.6 38.6 0 0012.341-2.003v16.67a54.869 54.869 0 01-3.57.701 3.24 3.24 0 00-2.728 3.199v10.088H67.956v-10.088a3.24 3.24 0 00-2.728-3.199 54.976 54.976 0 01-23.368-9.683 3.238 3.238 0 00-4.19.335l-7.135 7.135-8.546-8.546 7.132-7.132a3.241 3.241 0 00.335-4.191 54.957 54.957 0 01-9.694-23.37 3.241 3.241 0 00-3.2-2.728H6.49V74.088h10.069a3.241 3.241 0 003.2-2.728 54.948 54.948 0 019.687-23.382 3.241 3.241 0 00-.335-4.19l-7.122-7.121 8.546-8.546 7.12 7.12a3.241 3.241 0 004.191.335 54.964 54.964 0 0123.383-9.693 3.242 3.242 0 002.728-3.2V12.619h12.086v10.063a3.242 3.242 0 002.727 3.2 55.04 55.04 0 013.571.7v16.67zm0 6.915v59.898a32.072 32.072 0 01-12.342 2.438c-17.857 0-32.385-14.528-32.385-32.386 0-17.857 14.528-32.385 32.385-32.385 4.294 0 8.436.82 12.342 2.435zm6.48-39.081c.001-2.539.865-4.603 1.927-4.603h15.605c1.062 0 1.926 2.064 1.926 4.603v9.017H92.822v-9.017zm9.729 144.382l-6.813-13.732a13.98 13.98 0 002.23-.517c1.575-.502 3.214-1.339 4.582-2.43 1.37 1.091 3.009 1.928 4.584 2.43.757.242 1.502.411 2.23.517l-6.813 13.732zm9.729-20.692v.372c-.607.268-1.362.259-1.976.173-2.343-.326-4.164-1.785-4.513-2.409V54.797a3.24 3.24 0 10-6.481 0v78.112c-.344.62-2.166 2.085-4.514 2.411-.612.085-1.367.095-1.973-.173V39.553h19.457v95.222zm0-101.703H92.822v-6.488h19.457v6.488zm6.481-3.655l7.248 7.248-7.121 7.122c-.045.045-.085.092-.127.139V29.417zm7.248 94.175l-7.247 7.248v-14.506c.038.042.075.086.115.127l7.132 7.131zm5.424-37.42a3.24 3.24 0 00-3.199 2.727c-1.329 8.263-4.604 16.226-9.473 23.059V48.274c4.874 6.84 8.151 14.812 9.476 23.084a3.24 3.24 0 003.2 2.728h10.073v12.086h-10.077z" fill="#715F7A"/></svg>
